X: 19
T: Drowsy Maggie
R: reel
M: 4/4
L: 1/8
K: Ador
|:A2eA gAeA|A2eA dBGB|A2eA gAeA|edef gdBG|
A2eA A2 eA|A2 eA dB G2|A2eA gAeA|edef gdBd||
|:GABG FGAF|GABG Bd d2|GABG FGAF|EDEF GDBd|
GABG FGAF|GABG Bd d2|dBcA BGAF |EDEF GDBG||


Tune 27	Setting 12413

